X: 1
T: Rohan
C: Howard Shore
S: CutiePie on YouTube – https://www.youtube.com/watch?v=PRWkAzQmNZ4&list=PLfUZy8uhccNg2Xx3W9v0WQVHTYMt6Gvrl&index=3&t=75s
Z: Transcription: Alina Larson (from whistle tabs)
R: Air
M: 4/4
L: 1/8
K:Edor
P: CutiePie setting %(each line break being one cluster of notes)
%1st system
z E/E/ EG F2 G2|A2 E6|\
E2 E2 E3 D|E8|\
z E/E/ EG F2 G2|A2 d6|\
z B/B/ e/e/e f2 g2|a2 e6|\
f2 d2 c3 d|d2 B6||
%2nd system
z E/E/ EG F2 G2|A2 E6|\
z E/E/ EG F2 B2|c2 e6|\
z B/B/ e/e/e f2 g2|a2 e6|\
f2 d2 c3 d|d2 B6||
%3rd system
z E/E/ EG F2 G2|A2 E6|\
z E/E/ EG F2 G2|A2 d6|\
z B/B/ e/e/e f2 g2|a2 e6|\
f2 d2 c3 d|d2 B6||
%4th system
z E/E/ EG F2 G2|A2 E6|\
z E/E/ EG F2 B2|c2 e6|\
z B/B/ e/e/e f2 g2|a2 e6|\
f2 d2 c3 d|d2 B6||
%5th system
z E/E/ EG F2 G2|A2 E6|\
F2 D2 D3 E|D8|]